data/icons/scalable/actions/document-open-symbolic.svg

<?xml version="1.0" encoding="UTF-8"?>
<svg height="16px" viewBox="0 0 16 16" width="16px" xmlns="http://www.w3.org/2000/svg">
    <g fill="#2e3436">
        <path d="m 3 1 c -1.644531 0 -3 1.355469 -3 3 v 8 c 0 1.644531 1.355469 3 3 3 h 8.882812 c 0.832032 0 1.578126 -0.402344 2.054688 -0.9375 c 0.472656 -0.53125 0.738281 -1.167969 0.910156 -1.800781 l 0.972656 -2.609375 c 0.390626 -1.449219 -0.09375 -2.652344 -0.820312 -3.167969 c -0.484375 -0.34375 -0.714844 -0.292969 -1 -0.324219 v -1.160156 c 0 -0.855469 -0.558594 -1.589844 -1.09375 -1.828125 c -0.53125 -0.238281 -1.011719 -0.167969 -1.011719 -0.167969 l 0.105469 -0.003906 h -3.585938 l -1.707031 -1.707031 c -0.1875 -0.1875 -0.441406 -0.292969 -0.707031 -0.292969 z m 0 2 h 2.585938 l 1.707031 1.707031 c 0.1875 0.1875 0.441406 0.292969 0.707031 0.292969 h 4 c 0.035156 0 0.070312 -0.003906 0.105469 -0.007812 c 0 0 0.019531 0.019531 -0.011719 0.003906 c -0.035156 -0.011719 -0.09375 -0.25 -0.09375 0.003906 v 2 c 0 0.550781 0.449219 1 1 1 c 1 0 1.046875 0.703125 0.886719 1.128906 l -0.972657 2.609375 c -0.117187 0.4375 -0.296874 0.800781 -0.472656 0.996094 c -0.175781 0.199219 -0.285156 0.265625 -0.558594 0.265625 h -8.882812 c -0.570312 0 -1 -0.429688 -1 -1 v -8 c 0 -0.570312 0.46875 -0.792969 1 -1 z m 0 0"/>
        <path d="m 7 6 l 0.042969 0.003906 c -0.914063 -0.042968 -1.75 0.390625 -2.195313 0.96875 c -0.710937 1.222656 -1.15625 2.277344 -1.800781 3.71875 c -0.171875 0.523438 0.117187 1.089844 0.640625 1.261719 c 0.527344 0.171875 1.09375 -0.117187 1.261719 -0.640625 c 0.488281 -1.011719 0.921875 -1.816406 1.339843 -2.808594 c 0.210938 -0.503906 0.703126 -0.492187 0.898438 -0.503906 h 5.8125 c 0.550781 0 1 -0.449219 1 -1 s -0.449219 -1 -1 -1 z m 0 0"/>
    </g>
</svg>

<svg xmlns="http://www.w3.org/2000/svg" width="16" height="16">
    <g fill="#2e3436">
        <path d="M3 1C1.355 1 0 2.355 0 4v8c0 1.645 1.355 3 3 3h8.883c.832 0 1.578-.402 2.055-.938.472-.53.738-1.167.91-1.8l.972-2.61C16.21 8.203 15.727 7 15 6.484c-.484-.343-.715-.293-1-.324V5c0-.855-.559-1.59-1.094-1.828-.531-.238-1.011-.168-1.011-.168L12 3H8.414L6.707 1.293A1 1 0 0 0 6 1zm0 2h2.586l1.707 1.707A1 1 0 0 0 8 5h4c.035 0 .07-.004.105-.008 0 0 .02.02-.011.004C12.059 4.984 12 4.746 12 5v2c0 .55.45 1 1 1 1 0 1.047.703.887 1.129l-.973 2.61c-.117.437-.297.8-.473.995-.175.2-.285.266-.558.266H3c-.57 0-1-.43-1-1V4c0-.57.469-.793 1-1zm0 0"/>
        <path d="m7 6 .043.004c-.914-.043-1.75.39-2.195.969C4.137 8.195 3.69 9.25 3.047 10.69a1 1 0 1 0 1.902.621c.489-1.011.922-1.816 1.34-2.808C6.5 8 6.992 8.012 7.188 8H13c.55 0 1-.45 1-1s-.45-1-1-1zm0 0"/>
    </g>
</svg>
